X:586
T:Planxty Irwin
C:Turlough O'Carolan
H:For the dance "Homeward Bound" by Ken Alexander.  For the dance "Kingcombe Rejuvenated" by Alan Davies.
H:For the dance "Mrs Pike's Maggot" by Charles Bolton
M:3/4
L:1/4
%%MIDI beat 100 95 80
S:Colin Hume's website,  colinhume.com  - chords can also be printed below the stave.
Q:1/4=140
K:G
P:A
|:d | "G"g2 f | "C"e3/ f/g | "D"d2 c | "G"B3/ A/G |\
"Am"c2 A | "G"B3/ c/d |1 "D"F2 G | "D7"A2 :|2 "D7"G2 F | "G"G2 d |
P:B
"G"g2 g | "G"g3/ f/g | "D7"a2 a | "D7"a f d |\
"Em"b2 b | "A"a b g | "D7"f3/ "A7"g/e | "D7"d3/ e/f |
"G"g2 f | "C"e3/ f/g | "D"d2 "(B7/D#)"c | "Em"B3/ A/G |\
"Am"c2 A | "G"B3/ c/d | "D7"G2 F | "G"G2 |]

